X: 355
T: Bir Demet Yasemen
C: Zeki Müren
O: Turkey
F: http://compmusic.upf.edu/node/140
N: nihavent--sarki--duyek--bir_demet--zeki_muren
N: makam= nihavent
N: form= sarki
N: usul= duyek = 8/4
M: 8/4
L: 1/16
K: C _B _e  
Q: 1/4=150
%%MIDI tuningsystem comma53
z2 G4 A2 B4 A4  | ^F2 G6 D4 G4  | z2 B4 B2 B4 c4  | \
w:   |   |   | 
B2 A6 D4 A4  | z2 e2 d2 c2 B4 A4  | 
w:   |   | 
G2 ^F6 z8  | z2 A2 B2 c2 d4 B4  | ^F2 G6 D4 G4  | \
w:   |   |   | 
z2 G4 A2 B4 A4  | ^F2 G6 D4 G4  | 
w:   |   | 
z2 B4 B2 B4 c4  | B2 A6 D4 A4  | z2 e2 d2 c2 B4 A4  | \
w:   |   |   | 
G2 ^F6 z8  | z2 A2 B2 c2 d4 B4  | 
w:   |   | 
^F2 G6 D4 G4  | z2 G4 A2 B4 A4  | ^F2 G6 D4 G4  | \
w:   |  Bir  de met  ya  |  se men  SAZ  | 
z2 B4 B2 B4 cB A2  | AB AB c2 BA G2 .F2 .E2 .D2  | 
w:  aş kı mın  tek   |  ha *  *  *  tı ra *  sı  SAZ  | 
z2 G4 A2 B4 A4  | ^F2 G6 D4 G4  | z2 B4 B2 B4 cB A2  | \
w:  Bir  de met  ya  |  se men  SAZ  |  aş kı mın  tek   | 
AB AB cd cB B2 .B2 .c2 .d2  | 
w:  ha *  *  *  tı *  ra *  sı  SAZ  | 
z2 d4 d2 d4 e4  | c2 e6 z2 c2 e4  | z2 c4 c2 c4 d4  | \
w:  Bit mi yor  ay  |  rı lık  SAZ  |  din mi yor  gön  | 
B2 d6 z2 B2 d4  | z2 c6 c8  | 
w:  lü mün  SAZ  |  hic ran   | 
z2 B6 B8  | z2 A4 G2 ^F2 G2 B2 AG  | \
w:  hic ran   |  hic *  ran  *  ya ra  | 
G6 A2 B2 c2 d4  | z2 d4 d2 d4 e4  | 
w:  sı   SAZ  |  Bit mi yor  ay  | 
c2 e6 z2 c2 e4  | z2 c4 c2 c4 d4  | B2 d6 z2 B2 d4  | \
w:  rı lık  SAZ  |  din mi yor  gön  |  lü mün  SAZ  | 
z2 c6 c8  | z2 B6 B8  | 
w:  hic ran   |  hic ran   | 
z2 A4 G2 ^F2 G2 B2 AG  | G6 d2 e2 ^f2 g4  | \
w:  hic *  ran  *  ya ra  |  sı   SAZ  | 
z2 g4 g2 g4 ^f4  | e2 g6 z2 e2 g4  | 
w:  Ağ la sam  in  |  le sem  SAZ  | 
g2 ^f6 e4 d4  | z2 e2 d2 ^c2 a2 ^f2 e2 {f}ed  | \
w:  si lin mez   |  bah *  *  tın  *  ka *  ra  | 
d2 g4 g2 ^f2 e2 g4  | z2 g4 g2 g4 ^f4  | 
w:  sı   SAZ  |  Ağ la sam  in  | 
e2 g6 z2 e2 g4  | g2 ^f6 e4 d4  | z2 e2 d2 ^c2 a2 ^f2 e2 {f}ed  | \
w:  le sem  SAZ  |  si lin mez   |  bah *  *  tın  *  ka *  ra  | 
d2 e2 d2 c2 B2 c2 d4  | 
w:  sı   SAZ  | 
z2 d4 d2 d4 e4  | c2 e6 z2 c2 e4  | z2 c4 c2 c4 d4  | \
w:  Bit mi yor  ay  |  rı lık  SAZ  |  din mi yor  gön  | 
B2 d6 z2 B2 d4  | z2 c6 c8  | 
w:  lü mün  SAZ  |  hic ran   | 
z2 B6 B8  | z2 A4 G2 ^F2 G2 B2 AG  | \
w:  hic ran   |  hic *  ran  *  ya ra  | 
G6 A2 B2 c2 d4  | z2 d4 d2 d4 e4  | 
w:  sı   SAZ  |  Bit mi yor  ay  | 
c2 e6 z2 c2 e4  | z2 c4 c2 c4 d4  | B2 d6 z2 B2 d4  | \
w:  rı lık  SAZ  |  din mi yor  gön  |  lü mün  SAZ  | 
z2 c6 c8  | z2 B6 B8  | 
w:  hic ran   |  hic ran   | 
z2 A4 G2 ^F2 G2 B2 AG  | G6 d2 e2 ^f2 g4  | |


